X:1732
T:The Widow Cantwell's Fancy
M:2/4
L:1/16
N:"collected by Mrs. Cantwell"
B:O'Neill's 1732
R:Hornpipe
Z:"Transcribed by Bob Safranek, rjs@gsp.org"
K:G
ge|dBGG  GBdB|3ABG 3FGE DcBA|GFGG  GBdB|BAAA A2ge|
dBGG  GBdB|3ABG 3FGE DcBA|GBdg  ecAF|G2G2 G2    :|
|: Bc|dg~g2 dg~g2|dg~g2    edcB|Aabag fedc|Bdef gfge|
dBGG  GBdB|3ABG 3FGE DcBA|GBdg  ecAF|G2G2 G2    :|
